assets/src/svg/individual/logo-horizontal.svg

<svg width="279" height="62" viewBox="0 0 279 62" version="1.1" xmlns="http://www.w3.org/2000/svg" xmlns:xlink="http://www.w3.org/1999/xlink">
	<title>Wikimedia Foundation</title>
	<g transform="translate(1992 17360)">
		<g id="Horizontal Logo">
			<g id="Horizontal Logo">
				<use xlink:href="#path0_fillfull" transform="translate(-1992 -17360)"></use>
			</g>
		</g>
	</g>
		<path id="path0_fillfull" d="M 83.4609 25.8303L 87.8381 11.7278L 93.5763 11.7278L 97.9167 25.8303L 102.809 11.7278L 108.768 11.7278L 100.16 36.2428L 96.0775 36.2428L 90.6704 19.1809L 85.3001 36.2428L 81.2171 36.2428L 72.6099 11.7278L 78.5688 11.7278L 83.4609 25.8303ZM 111.747 11.7278L 117.265 11.7278L 117.265 36.2428L 111.747 36.2428L 111.747 11.7278ZM 123.334 11.7278L 128.851 11.7278L 128.851 21.8114L 138.157 11.7278L 144.962 11.7278L 135.141 22.5787C 135.987 23.7478 137.569 25.9399 139.849 29.1184C 142.13 32.297 143.822 34.6718 144.962 36.2428L 138.525 36.2428L 131.279 26.561L 128.815 29.3011L 128.815 36.2428L 123.297 36.2428L 123.297 11.7278L 123.334 11.7278ZM 148.383 11.7278L 153.901 11.7278L 153.901 36.2428L 148.383 36.2428L 148.383 11.7278ZM 182.076 20.825L 175.419 34.2334L 172.145 34.2334L 165.524 20.825L 165.524 36.2428L 160.007 36.2428L 160.007 11.7278L 167.474 11.7278L 173.837 25.2092L 180.237 11.7278L 187.668 11.7278L 187.668 36.2428L 182.15 36.2428L 182.15 20.825L 182.076 20.825ZM 211.466 11.7278L 211.466 16.5869L 199.181 16.5869L 199.181 21.6653L 210.216 21.6653L 210.216 26.3418L 199.181 26.3418L 199.181 31.4202L 211.871 31.4202L 211.871 36.2428L 193.7 36.2428L 193.7 11.7278L 211.466 11.7278ZM 235.596 14.9428C 237.95 17.0984 239.127 20.0578 239.127 23.8574C 239.127 27.657 237.987 30.6895 235.669 32.9181C 233.389 35.1467 229.858 36.2428 225.149 36.2428L 216.726 36.2428L 216.726 11.7278L 225.444 11.7278C 229.895 11.7278 233.242 12.8238 235.596 14.9428ZM 231.587 29.5203C 232.948 28.2416 233.61 26.4148 233.61 24.0035C 233.61 21.5922 232.948 19.7289 231.587 18.4502C 230.226 17.1349 228.166 16.5138 225.37 16.5138L 222.28 16.5138L 222.28 31.4202L 225.775 31.4202C 228.276 31.4202 230.226 30.7991 231.587 29.5203ZM 243.909 11.7278L 249.426 11.7278L 249.426 36.2428L 243.909 36.2428L 243.909 11.7278ZM 273.078 36.2428L 270.797 30.9452L 260.461 30.9452L 258.181 36.2428L 252.332 36.2428L 262.999 11.7278L 268.333 11.7278L 279 36.2428L 273.078 36.2428ZM 265.611 19.0348L 262.521 26.1591L 268.701 26.1591L 265.611 19.0348ZM 82.6517 47.386L 82.6517 50.3453L 87.4335 50.3453L 87.4335 52.0259L 82.6517 52.0259L 82.6517 56.4467L 80.8125 56.4467L 80.8125 45.7054L 88.022 45.7054L 88.022 47.386L 82.6517 47.386ZM 108.473 54.9122C 107.37 55.9717 106.046 56.4832 104.427 56.4832C 102.809 56.4832 101.485 55.9717 100.381 54.9122C 99.2776 53.8527 98.7259 52.5374 98.7259 50.9664C 98.7259 49.3954 99.2776 48.0801 100.381 47.0206C 101.485 45.9611 102.809 45.4496 104.427 45.4496C 106.046 45.4496 107.37 45.9611 108.473 47.0206C 109.577 48.0801 110.129 49.3954 110.129 50.9664C 110.129 52.5374 109.577 53.8527 108.473 54.9122ZM 107.149 48.2263C 106.414 47.459 105.494 47.0937 104.427 47.0937C 103.361 47.0937 102.441 47.459 101.705 48.2263C 100.97 48.9935 100.602 49.9069 100.602 50.9664C 100.602 52.0625 100.97 52.9758 101.705 53.7065C 102.441 54.4372 103.361 54.8391 104.427 54.8391C 105.494 54.8391 106.414 54.4738 107.149 53.7065C 107.885 52.9393 108.253 52.0259 108.253 50.9664C 108.253 49.8704 107.885 48.957 107.149 48.2263ZM 124.106 53.9623C 124.584 54.5468 125.283 54.8391 126.129 54.8391C 126.975 54.8391 127.637 54.5468 128.152 53.9623C 128.667 53.3777 128.888 52.6105 128.888 51.624L 128.888 45.6688L 130.727 45.6688L 130.727 51.6971C 130.727 53.2316 130.286 54.4372 129.44 55.2775C 128.594 56.1179 127.49 56.5197 126.166 56.5197C 124.842 56.5197 123.738 56.1179 122.892 55.2775C 122.046 54.4372 121.605 53.2681 121.605 51.6971L 121.605 45.6688L 123.444 45.6688L 123.444 51.624C 123.371 52.6105 123.628 53.3777 124.106 53.9623ZM 150.921 45.6688L 152.76 45.6688L 152.76 56.4101L 150.774 56.4101L 144.668 48.5916L 144.668 56.4101L 142.829 56.4101L 142.829 45.6688L 144.668 45.6688L 150.958 53.67L 150.958 45.6688L 150.921 45.6688ZM 173.175 47.0937C 174.205 48.0436 174.72 49.3223 174.72 51.0029C 174.72 52.6836 174.205 53.9988 173.212 54.9487C 172.219 55.9352 170.674 56.4101 168.577 56.4101L 165.009 56.4101L 165.009 45.6688L 168.724 45.6688C 170.637 45.6688 172.145 46.1438 173.175 47.0937ZM 172.917 51.0395C 172.917 48.5916 171.483 47.3494 168.687 47.3494L 166.848 47.3494L 166.848 54.693L 168.871 54.693C 170.196 54.693 171.189 54.4007 171.888 53.7796C 172.55 53.1585 172.917 52.2451 172.917 51.0395ZM 187.888 53.9623L 186.821 56.4101L 184.872 56.4101L 189.617 45.6688L 191.567 45.6688L 196.312 56.4101L 194.362 56.4101L 193.295 53.9623L 187.888 53.9623ZM 192.56 52.2817L 190.61 47.8609L 188.661 52.2817L 192.56 52.2817ZM 210.326 47.3494L 210.326 56.4101L 208.487 56.4101L 208.487 47.3494L 205.213 47.3494L 205.213 45.7054L 213.6 45.7054L 213.6 47.3494L 210.326 47.3494ZM 224.855 45.6688L 226.694 45.6688L 226.694 56.4101L 224.855 56.4101L 224.855 45.6688ZM 247.955 54.9122C 246.852 55.9717 245.527 56.4832 243.909 56.4832C 242.29 56.4832 240.966 55.9717 239.863 54.9122C 238.759 53.8527 238.208 52.5374 238.208 50.9664C 238.208 49.3954 238.759 48.0801 239.863 47.0206C 240.966 45.9611 242.29 45.4496 243.909 45.4496C 245.527 45.4496 246.852 45.9611 247.955 47.0206C 249.059 48.0801 249.61 49.3954 249.61 50.9664C 249.61 52.5374 249.059 53.8527 247.955 54.9122ZM 246.631 48.2263C 245.895 47.459 244.976 47.0937 243.909 47.0937C 242.842 47.0937 241.923 47.459 241.187 48.2263C 240.451 48.9935 240.083 49.9069 240.083 50.9664C 240.083 52.0625 240.451 52.9758 241.187 53.7065C 241.923 54.4372 242.842 54.8391 243.909 54.8391C 244.976 54.8391 245.895 54.4738 246.631 53.7065C 247.367 52.9393 247.734 52.0259 247.734 50.9664C 247.734 49.8704 247.367 48.957 246.631 48.2263ZM 269.252 45.6688L 271.092 45.6688L 271.092 56.4101L 269.105 56.4101L 262.999 48.5916L 262.999 56.4101L 261.16 56.4101L 261.16 45.6688L 262.999 45.6688L 269.289 53.67L 269.252 45.6688ZM 33.8405 49.9434C 43.1466 48.6282 50.2825 40.7001 50.2825 31.1279C 50.2825 25.2823 47.6341 20.0943 43.4777 16.5869L 33.8405 26.1591L 33.8405 49.9434ZM 28.4334 49.9434L 28.4334 26.1591L 18.7962 16.5504C 14.6397 20.0212 11.9913 25.2457 11.9913 31.0913C 11.9913 40.7001 19.1272 48.6282 28.4334 49.9434ZM 47.7813 14.5775C 52.232 18.9982 54.6597 24.8804 54.6597 31.0913C 54.6597 37.3023 52.1953 43.221 47.7813 47.6052C 43.3305 52.0259 37.4084 54.4372 31.1553 54.4372C 24.9022 54.4372 18.9433 51.9894 14.5293 47.6052C 10.1154 43.221 7.61411 37.3388 7.61411 31.0913C 7.61411 24.8438 10.0786 18.9617 14.4926 14.5775C 14.8604 14.2121 15.265 13.8468 15.6696 13.4814L 10.2993 8.14732C 9.89466 8.51267 9.52683 8.87802 9.12221 9.24337C 6.25313 12.0931 4.00936 15.3813 2.46447 19.0713C 0.846012 22.8709 0 26.9263 0 31.0913C 0 35.2563 0.809229 39.3117 2.46447 43.1114C 4.04614 46.8014 6.28991 50.0896 9.12221 52.9393C 11.9913 55.789 15.3018 58.0177 19.0169 59.5522C 22.8423 61.1597 26.9252 62 31.1185 62C 35.3118 62 39.3947 61.1962 43.2202 59.5522C 46.9353 57.9811 50.2457 55.7525 53.1148 52.9393C 55.9839 50.0896 58.2277 46.8014 59.7726 43.1114C 61.391 39.3117 62.237 35.2563 62.237 31.0913C 62.237 26.9263 61.4278 22.8709 59.7726 19.0713C 58.1909 15.3813 55.9471 12.0931 53.1148 9.24337C 52.747 8.87802 52.3424 8.51267 51.9378 8.14732L 46.6042 13.4814C 47.0088 13.8103 47.3767 14.1756 47.7813 14.5775ZM 31.1185 0C 36.4889 0 40.8293 4.31114 40.8293 9.64526C 40.8293 14.9794 36.4889 19.2905 31.1185 19.2905C 25.7482 19.2905 21.4078 14.9794 21.4078 9.64526C 21.4078 4.31114 25.7482 0 31.1185 0Z"></path>
</svg>

<svg xmlns="http://www.w3.org/2000/svg" xmlns:xlink="http://www.w3.org/1999/xlink" width="279" height="62"><use xlink:href="#a"/><path id="a" d="m83.46 25.83 4.378-14.102h5.738l4.34 14.102 4.893-14.102h5.959l-8.608 24.515h-4.082L90.67 19.18 85.3 36.243h-4.083L72.61 11.728h5.959L83.46 25.83Zm28.287-14.102h5.518v24.515h-5.518V11.728Zm11.587 0h5.517V21.81l9.306-10.083h6.805l-9.821 10.85c.846 1.17 2.428 3.362 4.708 6.54 2.281 3.179 3.973 5.554 5.113 7.125h-6.437l-7.246-9.682-2.464 2.74v6.942h-5.518V11.728h.037Zm25.049 0h5.518v24.515h-5.518V11.728Zm33.693 9.097-6.657 13.408h-3.274l-6.621-13.408v15.418h-5.517V11.728h7.467l6.363 13.481 6.4-13.481h7.431v24.515h-5.518V20.825h-.074Zm29.39-9.097v4.859h-12.285v5.078h11.035v4.677h-11.035v5.078h12.69v4.823H193.7V11.728h17.766Zm24.13 3.215c2.354 2.155 3.531 5.115 3.531 8.914 0 3.8-1.14 6.832-3.458 9.061-2.28 2.229-5.811 3.325-10.52 3.325h-8.423V11.728h8.718c4.451 0 7.798 1.096 10.152 3.215Zm-4.009 14.577c1.361-1.278 2.023-3.105 2.023-5.517 0-2.41-.662-4.274-2.023-5.553-1.361-1.315-3.421-1.936-6.217-1.936h-3.09V31.42h3.495c2.501 0 4.451-.62 5.812-1.9Zm12.322-17.792h5.517v24.515h-5.517V11.728Zm29.169 24.515-2.281-5.298h-10.336l-2.28 5.298h-5.849l10.667-24.515h5.334L279 36.243h-5.922Zm-7.467-17.208-3.09 7.124h6.18l-3.09-7.124ZM82.651 47.386v2.96h4.782v1.68h-4.781v4.42h-1.84v-10.74h7.21v1.68h-5.37Zm25.822 7.526c-1.103 1.06-2.427 1.571-4.046 1.571-1.618 0-2.942-.511-4.046-1.57-1.103-1.06-1.655-2.376-1.655-3.947 0-1.57.552-2.886 1.655-3.945 1.104-1.06 2.428-1.571 4.046-1.571 1.619 0 2.943.511 4.046 1.57 1.104 1.06 1.656 2.375 1.656 3.946 0 1.571-.552 2.887-1.656 3.946Zm-1.324-6.686c-.735-.767-1.655-1.132-2.722-1.132-1.066 0-1.986.365-2.722 1.132a3.825 3.825 0 0 0-1.103 2.74c0 1.096.368 2.01 1.103 2.74.736.731 1.656 1.133 2.722 1.133 1.067 0 1.987-.365 2.722-1.133a3.822 3.822 0 0 0 1.104-2.74c0-1.096-.368-2.009-1.104-2.74Zm16.957 5.736c.478.585 1.177.877 2.023.877.846 0 1.508-.292 2.023-.877.515-.584.736-1.352.736-2.338v-5.955h1.839v6.028c0 1.535-.441 2.74-1.287 3.58-.846.84-1.95 1.243-3.274 1.243s-2.428-.402-3.274-1.242c-.846-.84-1.287-2.01-1.287-3.58v-6.03h1.839v5.956c-.073.986.184 1.754.662 2.338Zm26.815-8.293h1.839V56.41h-1.986l-6.106-7.818v7.818h-1.839V45.67h1.839l6.29 8.001V45.67h-.037Zm22.254 1.425c1.03.95 1.545 2.228 1.545 3.909 0 1.68-.515 2.996-1.508 3.946-.993.986-2.538 1.461-4.635 1.461h-3.568V45.67h3.715c1.913 0 3.421.475 4.451 1.425Zm-.258 3.945c0-2.447-1.434-3.69-4.23-3.69h-1.839v7.344h2.023c1.325 0 2.318-.292 3.017-.913.662-.622 1.029-1.535 1.029-2.74Zm14.971 2.923-1.067 2.448h-1.949l4.745-10.741h1.95l4.745 10.741h-1.95l-1.067-2.448h-5.407Zm4.672-1.68-1.95-4.421-1.949 4.42h3.899Zm17.766-4.933v9.061h-1.839v-9.06h-3.274v-1.645h8.387v1.644h-3.274Zm14.529-1.68h1.839V56.41h-1.839V45.67Zm23.1 9.243c-1.103 1.06-2.428 1.571-4.046 1.571-1.619 0-2.943-.511-4.046-1.57-1.104-1.06-1.655-2.376-1.655-3.947 0-1.57.551-2.886 1.655-3.945 1.103-1.06 2.427-1.571 4.046-1.571 1.618 0 2.943.511 4.046 1.57 1.104 1.06 1.655 2.375 1.655 3.946 0 1.571-.551 2.887-1.655 3.946Zm-1.324-6.686c-.736-.767-1.655-1.132-2.722-1.132s-1.986.365-2.722 1.132a3.822 3.822 0 0 0-1.104 2.74c0 1.096.368 2.01 1.104 2.74.736.731 1.655 1.133 2.722 1.133s1.986-.365 2.722-1.133a3.82 3.82 0 0 0 1.103-2.74c0-1.096-.367-2.009-1.103-2.74Zm22.621-2.557h1.84V56.41h-1.987l-6.106-7.818v7.818h-1.839V45.67h1.839l6.29 8.001-.037-8.001ZM33.84 49.943c9.307-1.315 16.442-9.243 16.442-18.815 0-5.846-2.648-11.034-6.804-14.541l-9.638 9.572v23.784Zm-5.407 0V26.16l-9.637-9.609a18.896 18.896 0 0 0-6.805 14.541c0 9.61 7.136 17.537 16.442 18.852Zm19.348-35.365c4.451 4.42 6.879 10.302 6.879 16.513 0 6.211-2.465 12.13-6.879 16.514-4.45 4.42-10.373 6.832-16.626 6.832a23.545 23.545 0 0 1-16.626-6.832c-4.414-4.384-6.915-10.266-6.915-16.514 0-6.247 2.465-12.13 6.879-16.514.367-.365.772-.73 1.177-1.096L10.3 8.147c-.405.366-.773.731-1.178 1.096-2.869 2.85-5.113 6.138-6.658 9.828A30.563 30.563 0 0 0 0 31.091c0 4.165.81 8.22 2.464 12.02 1.582 3.69 3.826 6.979 6.658 9.828 2.87 2.85 6.18 5.079 9.895 6.613A31.132 31.132 0 0 0 31.119 62c4.193 0 8.276-.804 12.101-2.448a31.698 31.698 0 0 0 9.895-6.613c2.869-2.85 5.113-6.138 6.658-9.828a30.565 30.565 0 0 0 2.464-12.02c0-4.165-.81-8.22-2.464-12.02-1.582-3.69-3.826-6.978-6.658-9.828-.368-.365-.773-.73-1.177-1.096l-5.334 5.334c.405.33.773.695 1.177 1.097ZM31.12 0c5.37 0 9.71 4.311 9.71 9.645s-4.34 9.646-9.71 9.646c-5.37 0-9.711-4.312-9.711-9.646 0-5.334 4.34-9.645 9.71-9.645Z"/></svg>
